svgs/pujieblack.svg

<svg xmlns="http://www.w3.org/2000/svg" viewBox="0 0 192 192"><path d="M78.405 175.941c-22.249-1.141-42.608-8.804-58.508-22.024L16 150.677l1.225-1.279c1.057-1.103 14.702-13.651 27.389-25.187a655.773 655.773 0 0 0 7.126-6.589 583.202 583.202 0 0 1 6.714-6.213c1.936-1.76 5.261-4.81 7.387-6.778 9.264-8.569 14.759-13.19 16.163-13.593 4.197-1.202 8.516 2.11 7.696 5.905-.238 1.106-.1 1.443.934 2.271 1.206.968 10.815 7.119 16.135 10.329a300.121 300.121 0 0 1 4.986 3.078 269.422 269.422 0 0 0 5.24 3.207c1.67.995 4.537 2.793 6.37 3.995 2.23 1.461 3.656 2.146 4.301 2.064 1.237-.159 4.097-4.103 5.99-8.264 2.784-6.114 4.727-15.409 4.175-19.963-1.275-10.539-4.597-18.241-11.215-26.002-4.771-5.595-12.068-10.759-19.594-13.865-5.429-2.242-14.62-4.512-18.265-4.512-.745 0-1.965-.106-2.71-.235l-1.355-.235v-3.867c0-2.885.148-3.915.583-4.059.832-.278 10.36.7 13.909 1.427 14.851 3.043 29.219 11.781 37.46 22.783 6.717 8.967 9.843 17.311 10.442 27.864.677 11.969-1.703 20.729-8.51 31.306-1.019 1.583-1.852 3.146-1.852 3.475 0 .327.488.873 1.084 1.212 1.153.656 1.464 1.66.514 1.66-.315 0-2.998-1.563-5.962-3.474-2.966-1.909-6.388-4.07-7.606-4.8-1.217-.73-5.171-3.191-8.783-5.47a1306.495 1306.495 0 0 0-9.946-6.212 608.132 608.132 0 0 1-12.455-7.86c-5.329-3.446-4.72-3.577-11.275 2.433-20.214 18.528-46.161 42.992-46.164 43.523-.005 1.379 7.802 5.781 15.691 8.848 18.16 7.055 36.955 7.989 55.634 2.768 12.226-3.418 20.94-7.966 30.287-15.806 10.138-8.507 16.341-17.233 20.622-29.011 7.271-20.014 3.156-41.423-11.366-59.116-3.339-4.067-13.299-12.692-18.008-15.59-11.057-6.81-24.589-11.175-38.256-12.341l-5.826-.497-.121-5.807c-.065-3.194.033-5.939.217-6.099.186-.162 2.971-.125 6.192.081 35.671 2.281 66.564 22.44 79.053 51.588 5.352 12.488 6.823 23.978 5.013 39.12-.876 7.326-4.985 18.954-8.894 25.171l-2.879 4.575c-6.786 10.774-20.269 22.375-33.487 28.816-10.817 5.269-22.849 8.824-33.604 9.931-4.302.442-14.25.751-17.994.558Z"/></svg>

<svg
    xmlns="http://www.w3.org/2000/svg"
    viewBox="0 0 192 192"
    id="vector">
    <path
        id="path"
        d="M 78.405 175.941 C 56.156 174.8 35.797 167.137 19.897 153.917 L 16 150.677 L 17.225 149.398 C 18.282 148.295 31.927 135.747 44.614 124.211 C 47.008 122.03 49.383 119.834 51.74 117.622 C 53.959 115.536 56.197 113.465 58.454 111.409 C 60.39 109.649 63.715 106.599 65.841 104.631 C 75.105 96.062 80.6 91.441 82.004 91.038 C 86.201 89.836 90.52 93.148 89.7 96.943 C 89.462 98.049 89.6 98.386 90.634 99.214 C 91.84 100.182 101.449 106.333 106.769 109.543 C 108.443 110.554 110.105 111.58 111.755 112.621 C 113.487 113.708 115.234 114.778 116.995 115.828 C 118.665 116.823 121.532 118.621 123.365 119.823 C 125.595 121.284 127.021 121.969 127.666 121.887 C 128.903 121.728 131.763 117.784 133.656 113.623 C 136.44 107.509 138.383 98.214 137.831 93.66 C 136.556 83.121 133.234 75.419 126.616 67.658 C 121.845 62.063 114.548 56.899 107.022 53.793 C 101.593 51.551 92.402 49.281 88.757 49.281 C 88.012 49.281 86.792 49.175 86.047 49.046 L 84.692 48.811 L 84.692 44.944 C 84.692 42.059 84.84 41.029 85.275 40.885 C 86.107 40.607 95.635 41.585 99.184 42.312 C 114.035 45.355 128.403 54.093 136.644 65.095 C 143.361 74.062 146.487 82.406 147.086 92.959 C 147.763 104.928 145.383 113.688 138.576 124.265 C 137.557 125.848 136.724 127.411 136.724 127.74 C 136.724 128.067 137.212 128.613 137.808 128.952 C 138.961 129.608 139.272 130.612 138.322 130.612 C 138.007 130.612 135.324 129.049 132.36 127.138 C 129.394 125.229 125.972 123.068 124.754 122.338 C 123.537 121.608 119.583 119.147 115.971 116.868 C 112.667 114.784 109.352 112.713 106.025 110.656 C 101.835 108.082 97.683 105.462 93.57 102.796 C 88.241 99.35 88.85 99.219 82.295 105.229 C 62.081 123.757 36.134 148.221 36.131 148.752 C 36.126 150.131 43.933 154.533 51.822 157.6 C 69.982 164.655 88.777 165.589 107.456 160.368 C 119.682 156.95 128.396 152.402 137.743 144.562 C 147.881 136.055 154.084 127.329 158.365 115.551 C 165.636 95.537 161.521 74.128 146.999 56.435 C 143.66 52.368 133.7 43.743 128.991 40.845 C 117.934 34.035 104.402 29.67 90.735 28.504 L 84.909 28.007 L 84.788 22.2 C 84.723 19.006 84.821 16.261 85.005 16.101 C 85.191 15.939 87.976 15.976 91.197 16.182 C 126.868 18.463 157.761 38.622 170.25 67.77 C 175.602 80.258 177.073 91.748 175.263 106.89 C 174.387 114.216 170.278 125.844 166.369 132.061 L 163.49 136.636 C 156.704 147.41 143.221 159.011 130.003 165.452 C 119.186 170.721 107.154 174.276 96.399 175.383 C 92.097 175.825 82.149 176.134 78.405 175.941 Z"
        fill="#000000"
        stroke-width="12"/>
</svg>
